X: 926
T:Bridget's Mazurka
M:3/4
L:1/8
C:Jeff McKeen, Liberty ME
K:D
(uAB)|: "D"AF D2 (uAB)|"D"AF D2 (ude)|"D"f2 ({g}ufe) dA|"A"E4 (uAB)|
"D"AF DF AB|"D"AF D2 (ude)|"G"f2 ({g}ufe) "A"dc|1 "D"d4 (uAB):|2 "D"d3 (ue fg)|
|: "F#m"a2 (uag) fe|"Em"{f}g2 (gf) ed|"A"ef gd Bd|"A"AB AF "D"Df|
"F#m"a2 (uag) fe|"Em"{f}g2 (ugf) ed|"A"ef ec Ac|1 "D"d3 (ue fg):|2 "D"d4|]
